X: 543
T:The Palm Tree
T:"the one after the Flowers of Brooklyn"
R:reel
S:Mike Rafferty
N:after the Flowers of Brooklyn
N:Posted to the woodenflute mailing list, July 2002
N:Originally in Bb
C:Billy McComiskey
Z:lesl
M:C|
K:D
AF~F2 D2fa|gbag fddz|eA~A2 dcAF|GGAF GFEB|
AF~F2 D2fa|gbag fddz|eeab aged|1 cAGE EDDF:|2 cAGE EDDz||
|:af~f2 dz fa|ge~e2 cEAG|FGAF Gz ag|fa~a2 bagb|
af~f2 dz fa|ge~e2 cEAG|FGAF Gz ed|cAGE EDD2:||

